X: 1
T:Roscommon Reel, The
T:Master Crowley's 2
S:as recorded (1st time through) by Hugh Gillespie in 1937
N:Compare Ceol Rince 1.202, Cranitch's fiddle book, and John Doherty's recording. Transcribed by Alan Ng
D:Green Linnet GLCD 3066 (John Doherty on Green Linnet GLCD 3077)
R:reel
Z: id:ng-reels-25 transcribed by Alan Ng agng@students.wisc.edu Dec. 31, 1997
Z:compare with Henrik Norbeck's transcription hn-reel-180
M:C|
K:EDor
EFGA BAGB|AF~F2 dFAF|EFGA BAGB|AFdF FEE2::\
[eB]B~B2 efge|fa~a2 bf{a}fe|eB~B2 efge|fagf efgf|\
eB~B2 efge|fa~a2 b2ag|fagf (3efgfe|1dBAF E2[E2B,2]:|2dBAF EFGA||\
B2BA BcdB|ADFB ADFA|B2{d}BA BcdB|AFdF FE[E2B,2]|\
dBBA BcdB|AD[FB,]B AF[FB,]A|dB{d}BA B2dB|AFdF FEE2|]*
